!!!COM: Palestrina, Giovanni Perluigi da
!!!OPR: Missa Sanctorum meritis
!!!OTL: Benedictus
**kern	**kern	**kern	**kern
*Ibass	*Itenor	*Itenor	*Icalto
!Bassus	!Tenor 2	!Tenor 1	!Altus
*clefF4	*clefGv2	*clefGv2	*clefG2
*k[]	*k[]	*k[]	*k[]
*E:phr	*E:phr	*E:phr	*E:phr
*M4/2	*M4/2	*M4/2	*M4/2
=1	=1	=1	=1
0F	0r	0r	0r
=2	=2	=2	=2
1C	0r	0r	0r
1D	.	.	.
=3	=3	=3	=3
2AA	0c	0r	0r
1A	.	.	.
4G	.	.	.
4F	.	.	.
=4	=4	=4	=4
4E	1G	0r	0r
4D	.	.	.
2E	.	.	.
2.AA	1A	.	.
4BB	.	.	.
=5	=5	=5	=5
2C	2E	0c	0r
2AA	1e	.	.
2.C	.	.	.
.	4d	.	.
4D	4c	.	.
=6	=6	=6	=6
1E	4B	1G	0r
.	4A	.	.
.	2G	.	.
2AA	1c	1A	.
[2A	.	.	.
=7	=7	=7	=7
2A]	2.B	2E	0r
2G#	.	1e	.
.	8A	.	.
.	8B	.	.
2A	2c	.	.
2D	[2A	4d	.
.	.	4c	.
=8	=8	=8	=8
1E	2A]	4B	1r
.	.	4A	.
.	2G#	2B	.
[1D	1A	1d	[1f
=9	=9	=9	=9
2D]	2.F	2A	1f]
4C	.	2.A	.
4BB	4G	.	.
1AA	1A	.	1c
.	.	8G	.
.	.	8F	.
.	.	2E	.
=10	=10	=10	=10
1D	2r	1.F	1d
.	1A	.	.
1r	.	.	2A
.	4G	4E	[2e
.	4F	4D	.
=11	=11	=11	=11
0r	2E	2C	2e]
.	2F	2D	4d
.	.	.	4c
.	2G	2E	2B
.	[2A	2F	2A
=12	=12	=12	=12
1r	2A]	1E	1B
.	2G#	.	.
[1F	1A	2.c	2A
.	.	.	[2a
.	.	4B	.
=13	=13	=13	=13
1F]	0c	1.A	2a]
.	.	.	4g
.	.	.	4f
1C	.	.	4e
.	.	.	4d
.	.	2G	[2e
=14	=14	=14	=14
1D	1A	1F	4e]
.	.	.	4d
.	.	.	1d
1AA	1A	1E	.
.	.	.	2c
=15	=15	=15	=15
2r	1A	1D	1f
1A	.	.	.
.	2r	2.E	2.e
4G	[2e	.	.
4F	.	4D	4f
=16	=16	=16	=16
2E	2e]	2C	2g
2F	4d	2D	2f
.	4c	.	.
2G	2B	[1E	1e
[2A	2A	.	.
=17	=17	=17	=17
2A]	1B	1E]	2r
2G#	.	.	2e
1A	1c	2r	1e
.	.	2A	.
=18	=18	=18	=18
1D	1d	2A	2f
.	.	2B	2.d
1r	1r	2.G	.
.	.	.	4c
.	.	.	2d
.	.	4F	.
=19	=19	=19	=19
0r	0r	2G	2.e
.	.	2.A	.
.	.	.	4d
.	.	.	4c
.	.	4G	4B
.	.	4F	2c
.	.	4E	.
=20	=20	=20	=20
0r	0r	4F	2A
.	.	4E	.
.	.	4D	1d
.	.	4E	.
.	.	4F	.
.	.	4G	.
.	.	4A	[2c
.	.	4F	.
=21	=21	=21	=21
1E	0r	2G	2c]
.	.	1A	4B
.	.	.	4A
1E	.	.	2B
.	.	2G	2e
=22	=22	=22	=22
2F	2r	1A	2c
2.D	2A	.	2.f
.	2A	1r	.
4C	.	.	4e
2D	2B	.	4d
.	.	.	4c
=23	=23	=23	=23
2.E	2.G	0r	1B
4D	4F	.	.
4C	2G	.	2r
4BB	.	.	.
2C	[2A	.	2e
=24	=24	=24	=24
2AA	4A]	0r	2e
.	4G	.	.
2.D	4F	.	2f
.	4E	.	.
.	2.F	.	2.d
4C	.	.	.
4D	.	.	.
4E	4G	.	4c
=25	=25	=25	=25
2F	2A	1r	2d
2G	2B	.	2.e
2.A	1c	2r	.
.	.	.	4c
.	.	2A	[2f
4G	.	.	.
=26	=26	=26	=26
2F	1d	2A	4f]
.	.	.	4e
2G	.	2B	1d
[1E	1r	2.G	.
.	.	.	4c#
.	.	4F	4B
=27	=27	=27	=27
2E]	1r	2G	2c#
2AA	.	2.A	2c#
1D	2r	.	[1d
.	.	4G	.
.	2A	4F	.
.	.	4E	.
=28	=28	=28	=28
1r	2A	2F	1d]
.	2B-	2G	.
2r	2.G	2E	1r
2E	.	2e	.
.	4F	.	.
=29	=29	=29	=29
2E	2G	2e	0r
2F	2.A	2c	.
2.D	.	2d	.
.	4G	.	.
.	4F	[2d	.
4C	4E	.	.
=30	=30	=30	=30
2D	2F	4d]	1r
.	.	4c	.
2.E	1G	4B	.
.	.	4A	.
.	.	2B	1e
4D	.	.	.
4C	2E	[2c	.
4BB	.	.	.
=31	=31	=31	=31
2AA	1A	4c]	1e
.	.	4B	.
2.A	.	2c	.
.	2.D	[1A	2f
4G	.	.	.
4F	.	.	[2d
4E	4E	.	.
=32	=32	=32	=32
4D	4F	1A]	4d]
4E	4G	.	4c
2F	1A	.	2d
2E	.	1B	2.e
2E	2G#	.	.
.	.	.	4d
=33	=33	=33	=33
2AA	1A	1A	4c
.	.	.	4B
2A	.	.	1c
2A	1r	2.e	.
2G#	.	.	2B
.	.	4d	.
=34	=34	=34	=34
2A	2r	4c	1A
.	.	4B	.
4AA	2A	1c	.
4BB	.	.	.
4C	2A	.	[1e
4D	.	.	.
2E	2G#	2B	.
=35	=35	=35	=35
1.AA	1A	2.c	1e]
.	.	4B	.
.	2c	1A	1e
2AA	2c	.	.
=36	=36	=36	=36
0E	0B	0G#	0e
==	==	==	==
*-	*-	*-	*-
!!!CDT: 1525/^1526/-1594/2/2
!!!OCY: Italia
!!!AGN: Mass (Paraphrase)
!!!AST: renaissance, vocal
!!!ASW: Hymn
!!!PWK: Masses, Book 7
!!!RNB: Cadence finals: A,C
!!!YOR: Le Opere Complete, v. 23, p. 30
!!!YOO: Rome, Italy: Fratelli Scalera
!!!END: 1992//
!!!EED: John Miller
!!!YEC: Copyright 2000, John Miller
!!!YEN: United States of America
!!!YEM: Rights to all derivative electronic formats reserved.
!!!YEM: Refer to licensing agreement for further details.
!!!YEM: This file must be accompanied by the licensing agreement.
!!!YEM: A copy of the licensing agreement may be found at http://www.music-cog.ohio-state.edu/HumdrumDatabases/Palestrina/license.txt
!!!EMD: converted to Humdrum by Bret Aarden
